X:1319
L:1/8
M:3/4
K:G
 g f g a g2 | f2 d e f d | g2 G2 G2 | G4 d2 | e2 e2 f2 | g2 d2 B2 | c2 c2 B2 | B2 A4 | g f g a g2 | 
 f2 d e f d | g2 G2 G2 | G4 d2 | e2 e2 f2 | g2 d2 B2 | c2 c2 B2 | B2 A4 | D2 c B c2 | B d c B A G | 
 D2 c B c2 | B d c B A G | e d c d e f | g f e d c B | e d c B A G | F A G F E D | G F G A B c | 
 d ^c d e f d | g2 G2 G2 | G4 e2 | ^d2 e2 e2 | ^c2 d2 d2 | c2 A2 F2 | G6 ||

